src/assets/anjButton.svg

<svg width="27" height="30" viewBox="0 0 27 30" fill="none" xmlns="http://www.w3.org/2000/svg">
<path fill-rule="evenodd" clip-rule="evenodd" d="M13.2058 29.9111C14.5432 29.1555 24.8672 23.3221 26.4005 22.4557L26.4011 17.4849C24.7741 18.4042 14.8326 24.0215 13.2065 24.9403C11.9338 24.2215 5.6863 20.6924 4.40855 19.9706L4.40916 14.9998C6.09376 14.0481 11.5243 10.9796 13.2062 10.0293C18.6125 13.0858 16.5867 11.941 22.0022 15.0001L22.0028 10.0294C20.7301 9.31051 14.4826 5.78144 13.2049 5.05957C11.7948 5.85633 1.38021 11.7409 0.0102539 12.5149C0.0119081 18.6239 0.011734 16.3704 0.0110375 22.4554C10.1863 28.2032 3.07177 24.1865 13.2058 29.9111Z" fill="url(#paint0_linear)"/>
<path opacity="0.2" fill-rule="evenodd" clip-rule="evenodd" d="M13.2058 29.9111C14.5432 29.1555 24.8672 23.3221 26.4005 22.4557L26.4011 17.4849C24.7741 18.4042 14.8326 24.0215 13.2065 24.9403C11.9338 24.2215 5.6863 20.6924 4.40855 19.9706L4.40916 14.9998C6.09376 14.0481 11.5243 10.9796 13.2062 10.0293C18.6125 13.0858 16.5867 11.941 22.0022 15.0001L22.0028 10.0294C20.7301 9.31051 14.4826 5.78144 13.2049 5.05957C11.7948 5.85633 1.38021 11.7409 0.0102539 12.5149C0.0119081 18.6239 0.011734 16.3704 0.0110375 22.4554C10.1863 28.2032 3.07177 24.1865 13.2058 29.9111Z" fill="white"/>
<path fill-rule="evenodd" clip-rule="evenodd" d="M13.2049 5.05961C14.4775 5.77849 20.725 9.30765 22.0028 10.0294L22.0022 15.0001C12.9684 20.1045 22.2415 14.8649 13.2051 19.9707C7.80013 16.9149 9.79407 18.0418 4.40916 14.9999L4.40855 19.9706C5.68125 20.6895 11.9287 24.2186 13.2065 24.9404C14.8329 24.0214 24.7748 18.4039 26.4011 17.485C26.3994 11.3761 26.3996 13.6295 26.4003 7.54465C16.142 1.74985 23.2742 5.77653 13.2055 0.0889282C4.18271 5.18708 7.53023 3.29558 0.0108634 7.54431L0.0102539 12.515C1.36793 11.7479 11.9004 5.79673 13.2049 5.05961Z" fill="url(#paint1_linear)"/>
<path opacity="0.5" fill-rule="evenodd" clip-rule="evenodd" d="M13.2049 5.05961C14.4775 5.77849 20.725 9.30765 22.0028 10.0294L22.0022 15.0001C12.9684 20.1045 22.2415 14.8649 13.2051 19.9707C7.80013 16.9149 9.79407 18.0418 4.40916 14.9999L4.40855 19.9706C5.68125 20.6895 11.9287 24.2186 13.2065 24.9404C14.8329 24.0214 24.7748 18.4039 26.4011 17.485C26.3994 11.3761 26.3996 13.6295 26.4003 7.54465C16.142 1.74985 23.2742 5.77653 13.2055 0.0889282C4.18271 5.18708 7.53023 3.29558 0.0108634 7.54431L0.0102539 12.515C1.36793 11.7479 11.9004 5.79673 13.2049 5.05961Z" fill="white"/>
<defs>
<linearGradient id="paint0_linear" x1="23.8858" y1="9.81837" x2="3.75827" y2="29.0707" gradientUnits="userSpaceOnUse">
<stop stop-color="#FF8989"/>
<stop offset="1" stop-color="#FFB170"/>
</linearGradient>
<linearGradient id="paint1_linear" x1="23.8858" y1="4.84771" x2="3.75833" y2="24.1" gradientUnits="userSpaceOnUse">
<stop stop-color="#FF8989"/>
<stop offset="1" stop-color="#FFB170"/>
</linearGradient>
</defs>
</svg>

<svg width="27" height="30" fill="none" xmlns="http://www.w3.org/2000/svg"><path fill-rule="evenodd" clip-rule="evenodd" d="M13.206 29.911L26.4 22.456v-4.971L13.207 24.94l-8.798-4.97V15l8.797-4.97c5.407 3.056 3.38 1.911 8.796 4.97v-4.97c-1.272-.72-7.52-4.249-8.797-4.97L.01 12.515c.002 6.109.002 3.855.001 9.94 10.175 5.748 3.06 1.732 13.195 7.456z" fill="url(#paint0_linear)"/><path opacity=".2" fill-rule="evenodd" clip-rule="evenodd" d="M13.206 29.911L26.4 22.456v-4.971L13.207 24.94l-8.798-4.97V15l8.797-4.97c5.407 3.056 3.38 1.911 8.796 4.97v-4.97c-1.272-.72-7.52-4.249-8.797-4.97L.01 12.515c.002 6.109.002 3.855.001 9.94 10.175 5.748 3.06 1.732 13.195 7.456z" fill="#fff"/><path fill-rule="evenodd" clip-rule="evenodd" d="M13.205 5.06l8.798 4.97V15l-8.798 4.97C7.8 16.916 9.795 18.043 4.41 15v4.97c1.272.72 7.52 4.249 8.797 4.97l13.195-7.455c-.002-6.109-.001-3.855 0-9.94C16.141 1.75 23.273 5.777 13.205.089L.01 7.544v4.971L13.204 5.06z" fill="url(#paint1_linear)"/><path opacity=".5" fill-rule="evenodd" clip-rule="evenodd" d="M13.205 5.06l8.798 4.97V15l-8.798 4.97C7.8 16.916 9.795 18.043 4.41 15v4.97c1.272.72 7.52 4.249 8.797 4.97l13.195-7.455c-.002-6.109-.001-3.855 0-9.94C16.141 1.75 23.273 5.777 13.205.089L.01 7.544v4.971L13.204 5.06z" fill="#fff"/><defs><linearGradient id="paint0_linear" x1="23.886" y1="9.818" x2="3.758" y2="29.071" gradientUnits="userSpaceOnUse"><stop stop-color="#FF8989"/><stop offset="1" stop-color="#FFB170"/></linearGradient><linearGradient id="paint1_linear" x1="23.886" y1="4.848" x2="3.758" y2="24.1" gradientUnits="userSpaceOnUse"><stop stop-color="#FF8989"/><stop offset="1" stop-color="#FFB170"/></linearGradient></defs></svg>
